packages/core/src/svgs/paid.svg

<svg width="24" height="24" viewBox="0 0 24 24" fill="none" xmlns="http://www.w3.org/2000/svg">
<g clip-path="url(#clip0_31_15696)">
<path d="M0 0H24V24H0V0Z" fill="url(#paint0_linear_31_15696)"/>
<path d="M13.2858 9.85707V10.7142L13.2815 10.8514L13.5858 12.3085C13.9466 11.8554 14.143 11.2934 14.143 10.7142V9.85707C14.143 9.17509 13.872 8.52103 13.3898 8.0388C12.9076 7.55656 12.2535 7.28564 11.5715 7.28564H8.14296C7.46098 7.28564 6.80692 7.55656 6.32469 8.0388C5.84245 8.52103 5.57153 9.17509 5.57153 9.85707V10.7142C5.57124 11.1659 5.68992 11.6096 5.91563 12.0009C6.14133 12.3921 6.4661 12.717 6.85725 12.9428V11.8499C6.59153 11.5499 6.42868 11.1471 6.42868 10.7142V9.85707C6.42868 9.40242 6.60929 8.96638 6.93078 8.64489C7.25227 8.3234 7.68831 8.14279 8.14296 8.14279H11.5715C12.0262 8.14279 12.4622 8.3234 12.7837 8.64489C13.1052 8.96638 13.2858 9.40242 13.2858 9.85707Z" fill="#F0F3FA"/>
<path d="M12.8571 6.42843H13.7142C14.1689 6.42843 14.6049 6.60904 14.9264 6.93054C15.2479 7.25203 15.4285 7.68806 15.4285 8.14272V11.5713C15.4285 12.0259 15.2479 12.462 14.9264 12.7835C14.6049 13.105 14.1689 13.2856 13.7142 13.2856H12.8571C12.4024 13.2856 11.9664 13.105 11.6449 12.7835C11.3234 12.462 11.1428 12.0259 11.1428 11.5713H10.2856C10.2856 12.2533 10.5566 12.9073 11.0388 13.3896C11.521 13.8718 12.1751 14.1427 12.8571 14.1427H13.7142C14.3962 14.1427 15.0503 13.8718 15.5325 13.3896C16.0147 12.9073 16.2856 12.2533 16.2856 11.5713V8.14272C16.2856 7.46073 16.0147 6.80668 15.5325 6.32444C15.0503 5.84221 14.3962 5.57129 13.7142 5.57129H12.8571C12.4054 5.571 11.9616 5.68968 11.5704 5.91538C11.1792 6.14109 10.8543 6.46586 10.6285 6.857H11.7214C12.0214 6.59129 12.4242 6.42843 12.8571 6.42843Z" fill="#F0F3FA"/>
<path d="M9.85707 10.7141H10.7142C11.1689 10.7141 11.6049 10.8947 11.9264 11.2162C12.2479 11.5377 12.4285 11.9737 12.4285 12.4284V12.8569H13.2856V12.4284C13.2856 11.7464 13.0147 11.0923 12.5325 10.6101C12.0503 10.1279 11.3962 9.85693 10.7142 9.85693H9.85707C9.17509 9.85693 8.52103 10.1279 8.0388 10.6101C7.55656 11.0923 7.28564 11.7464 7.28564 12.4284V15.8569C7.28564 16.5389 7.55656 17.193 8.0388 17.6752C8.52103 18.1574 9.17509 18.4284 9.85707 18.4284H10.7142C11.2462 18.4286 11.7652 18.2639 12.1996 17.9569C12.6341 17.6499 12.9626 17.2156 13.1399 16.7141H12.1971C12.0468 16.9744 11.8306 17.1907 11.5704 17.3411C11.3101 17.4916 11.0148 17.5709 10.7142 17.5712H9.85707C9.40242 17.5712 8.96638 17.3906 8.64489 17.0691C8.3234 16.7476 8.14279 16.3116 8.14279 15.8569V12.4284C8.14279 11.9737 8.3234 11.5377 8.64489 11.2162C8.96638 10.8947 9.40242 10.7141 9.85707 10.7141Z" fill="#F0F3FA"/>
<path d="M17.1429 11.7213C17.4086 12.0213 17.5715 12.4241 17.5715 12.857V13.7141C17.5715 14.1688 17.3909 14.6048 17.0694 14.9263C16.7479 15.2478 16.3118 15.4284 15.8572 15.4284H12.4286C11.9739 15.4284 11.5379 15.2478 11.2164 14.9263C10.8949 14.6048 10.7143 14.1688 10.7143 13.7141V13.5427L9.85718 12.857V13.7141C9.85718 14.3961 10.1281 15.0502 10.6103 15.5324C11.0926 16.0146 11.7466 16.2856 12.4286 16.2856H15.8572C16.5392 16.2856 17.1932 16.0146 17.6755 15.5324C18.1577 15.0502 18.4286 14.3961 18.4286 13.7141V12.857C18.4289 12.4053 18.3102 11.9616 18.0845 11.5703C17.8588 11.1791 17.534 10.8542 17.1429 10.6284V11.7213Z" fill="#F0F3FA"/>
</g>
<defs>
<linearGradient id="paint0_linear_31_15696" x1="4.92857" y1="4.07143" x2="20.3571" y2="20.5714" gradientUnits="userSpaceOnUse">
<stop stop-color="#074C7D"/>
<stop offset="1" stop-color="#5D0B5D"/>
</linearGradient>
<clipPath id="clip0_31_15696">
<rect width="24" height="24" fill="white"/>
</clipPath>
</defs>
</svg>

<svg xmlns="http://www.w3.org/2000/svg" width="24" height="24" fill="none" viewBox="0 0 24 24"><g clip-path="url(#a)"><path fill="url(#b)" d="M0 0h24v24H0z"/><path fill="#F0F3FA" d="M13.286 9.857v.857l-.005.137.305 1.457a2.56 2.56 0 0 0 .557-1.594v-.857a2.57 2.57 0 0 0-2.572-2.571H8.143a2.57 2.57 0 0 0-2.571 2.571v.857a2.57 2.57 0 0 0 1.285 2.229V11.85a1.72 1.72 0 0 1-.428-1.136v-.857a1.714 1.714 0 0 1 1.714-1.714h3.428a1.714 1.714 0 0 1 1.715 1.714"/><path fill="#F0F3FA" d="M12.857 6.428h.857a1.714 1.714 0 0 1 1.714 1.715v3.428a1.714 1.714 0 0 1-1.714 1.715h-.857a1.714 1.714 0 0 1-1.714-1.715h-.857a2.57 2.57 0 0 0 2.571 2.572h.857a2.57 2.57 0 0 0 2.572-2.572V8.143a2.57 2.57 0 0 0-2.572-2.572h-.857a2.57 2.57 0 0 0-2.228 1.286h1.092c.3-.266.703-.429 1.136-.429"/><path fill="#F0F3FA" d="M9.857 10.714h.857a1.714 1.714 0 0 1 1.714 1.714v.429h.858v-.429a2.57 2.57 0 0 0-2.572-2.571h-.857a2.57 2.57 0 0 0-2.571 2.571v3.429a2.57 2.57 0 0 0 2.571 2.571h.857a2.57 2.57 0 0 0 2.426-1.714h-.943a1.72 1.72 0 0 1-1.483.857h-.857a1.714 1.714 0 0 1-1.714-1.714v-3.429a1.714 1.714 0 0 1 1.714-1.714"/><path fill="#F0F3FA" d="M17.143 11.721c.266.3.428.703.428 1.136v.857a1.714 1.714 0 0 1-1.714 1.714H12.43a1.714 1.714 0 0 1-1.715-1.714v-.171l-.857-.686v.857a2.57 2.57 0 0 0 2.572 2.572h3.428a2.57 2.57 0 0 0 2.572-2.572v-.857a2.57 2.57 0 0 0-1.286-2.229z"/></g><defs><linearGradient id="b" x1="4.929" x2="20.357" y1="4.071" y2="20.571" gradientUnits="userSpaceOnUse"><stop stop-color="#074C7D"/><stop offset="1" stop-color="#5D0B5D"/></linearGradient><clipPath id="a"><path fill="#fff" d="M0 0h24v24H0z"/></clipPath></defs></svg>
